modules/UI/Widget/TextInput/TextInput.svg

<?xml version="1.0" encoding="UTF-8" standalone="no"?>
<!-- Created with Inkscape (http://www.inkscape.org/) -->

<svg
   xmlns:dc="http://purl.org/dc/elements/1.1/"
   xmlns:cc="http://creativecommons.org/ns#"
   xmlns:rdf="http://www.w3.org/1999/02/22-rdf-syntax-ns#"
   xmlns:svg="http://www.w3.org/2000/svg"
   xmlns="http://www.w3.org/2000/svg"
   xmlns:sodipodi="http://sodipodi.sourceforge.net/DTD/sodipodi-0.dtd"
   xmlns:inkscape="http://www.inkscape.org/namespaces/inkscape"
   width="53.974201"
   height="16.002199"
   id="svg2"
   version="1.1"
   inkscape:version="0.48.2 r9819"
   sodipodi:docname="TextInput.svg"
   inkscape:export-filename="/Users/Luke/Sites/MusicMe/app/modules/UI/Widget/TextInput/TextInput.png"
   inkscape:export-xdpi="90"
   inkscape:export-ydpi="90">
  <defs
     id="defs4" />
  <sodipodi:namedview
     id="base"
     pagecolor="#ffffff"
     bordercolor="#666666"
     borderopacity="1.0"
     inkscape:pageopacity="0.0"
     inkscape:pageshadow="2"
     inkscape:zoom="5.6"
     inkscape:cx="21.430215"
     inkscape:cy="16.639276"
     inkscape:document-units="px"
     inkscape:current-layer="layer1"
     showgrid="false"
     inkscape:window-width="1176"
     inkscape:window-height="859"
     inkscape:window-x="0"
     inkscape:window-y="22"
     inkscape:window-maximized="0"
     fit-margin-top="0"
     fit-margin-left="0"
     fit-margin-right="0"
     fit-margin-bottom="0" />
  <metadata
     id="metadata7">
    <rdf:RDF>
      <cc:Work
         rdf:about="">
        <dc:format>image/svg+xml</dc:format>
        <dc:type
           rdf:resource="http://purl.org/dc/dcmitype/StillImage" />
        <dc:title></dc:title>
      </cc:Work>
    </rdf:RDF>
  </metadata>
  <g
     inkscape:label="Layer 1"
     inkscape:groupmode="layer"
     id="layer1"
     transform="translate(0,-1036.36)">
    <path
       style="fill:#aeaeae;fill-opacity:1;stroke:none"
       d="M 8,0 C 3.5817219,0 0,3.581722 0,8 c 0,4.418278 3.5817219,8 8,8 4.418278,0 8,-3.581722 8,-8 C 16,3.581722 12.418278,0 8,0 z M 4.4375,3.34375 c 0.1533504,0.00254 0.2906928,0.068047 0.40625,0.1875 l 3.1875,3.28125 3.25,-3.1875 C 11.520156,3.3938856 11.893886,3.4173444 12.125,3.65625 L 12.5,4 c 0.231114,0.2389056 0.207656,0.6126356 -0.03125,0.84375 l -3.28125,3.1875 3.1875,3.25 c 0.231114,0.238906 0.207656,0.612636 -0.03125,0.84375 L 12,12.5 c -0.238906,0.231114 -0.612636,0.207656 -0.84375,-0.03125 L 7.96875,9.1875 4.71875,12.375 C 4.4798444,12.606114 4.1061144,12.582656 3.875,12.34375 L 3.5,12 C 3.2688856,11.761094 3.2923444,11.387364 3.53125,11.15625 L 6.8125,7.96875 3.625,4.71875 C 3.3938856,4.4798444 3.4173444,4.1061144 3.65625,3.875 L 4,3.5 C 4.1194528,3.3844428 4.2841496,3.341208 4.4375,3.34375 z"
       transform="translate(0,1036.3622)"
       id="path2985"
       inkscape:connector-curvature="0" />
    <path
       id="path3821"
       d="m 24,1036.3622 c -4.418278,0 -8,3.5817 -8,8 0,4.4183 3.581722,8 8,8 4.418278,0 8,-3.5817 8,-8 0,-4.4183 -3.581722,-8 -8,-8 z m -3.5625,3.3438 c 0.15335,0 0.290693,0.068 0.40625,0.1875 l 3.1875,3.2812 3.25,-3.1875 c 0.238906,-0.2311 0.612636,-0.2077 0.84375,0.031 l 0.375,0.3437 c 0.231114,0.2389 0.207656,0.6126 -0.03125,0.8438 l -3.28125,3.1875 3.1875,3.25 c 0.231114,0.2389 0.207656,0.6126 -0.03125,0.8437 L 28,1048.8622 c -0.238906,0.2311 -0.612636,0.2077 -0.84375,-0.031 l -3.1875,-3.2813 -3.25,3.1875 c -0.238906,0.2311 -0.612636,0.2077 -0.84375,-0.031 l -0.375,-0.3438 c -0.231114,-0.2389 -0.207656,-0.6126 0.03125,-0.8437 l 3.28125,-3.1875 -3.1875,-3.25 c -0.231114,-0.239 -0.207656,-0.6127 0.03125,-0.8438 L 20,1039.8622 c 0.119453,-0.1156 0.28415,-0.1588 0.4375,-0.1562 z"
       style="fill:#797979;fill-opacity:1;stroke:none"
       inkscape:connector-curvature="0" />
    <g
       id="g5030"
       transform="translate(6,0)"
       style="stroke:#aeaeae;stroke-opacity:1">
      <path
         transform="matrix(1.001816,0,0,1.212766,-1.4813145,1032.8354)"
         d="m 44.598214,7.7633929 c 0,2.5271961 -2.428456,4.5758931 -5.424107,4.5758931 C 36.178455,12.339286 33.75,10.290589 33.75,7.7633929 33.75,5.236197 36.178455,3.1875 39.174107,3.1875 c 2.995651,0 5.424107,2.048697 5.424107,4.5758929 z"
         sodipodi:ry="4.5758929"
         sodipodi:rx="5.4241071"
         sodipodi:cy="7.7633929"
         sodipodi:cx="39.174107"
         id="path4518"
         style="fill:none;stroke:#aeaeae;stroke-width:0.55012894000000001;stroke-miterlimit:4;stroke-dasharray:none;stroke-opacity:1"
         sodipodi:type="arc" />
      <path
         sodipodi:nodetypes="cc"
         transform="translate(0,1036.3622)"
         inkscape:connector-curvature="0"
         id="path5028"
         d="m 41.830357,10.107143 5.714286,5.446429"
         style="fill:#b1b1b1;fill-opacity:1;stroke:#aeaeae;stroke-width:0.80000000999999998;stroke-linecap:round;stroke-linejoin:round;stroke-miterlimit:4;stroke-opacity:1;stroke-dasharray:none" />
    </g>
  </g>
</svg>

<?xml version="1.0" encoding="UTF-8" standalone="no"?>
<!-- Created with Inkscape (http://www.inkscape.org/) -->

<svg
   xmlns:dc="http://purl.org/dc/elements/1.1/"
   xmlns:cc="http://creativecommons.org/ns#"
   xmlns:rdf="http://www.w3.org/1999/02/22-rdf-syntax-ns#"
   xmlns:svg="http://www.w3.org/2000/svg"
   xmlns="http://www.w3.org/2000/svg"
   xmlns:sodipodi="http://sodipodi.sourceforge.net/DTD/sodipodi-0.dtd"
   xmlns:inkscape="http://www.inkscape.org/namespaces/inkscape"
   width="32"
   height="16"
   id="svg2"
   version="1.1"
   inkscape:version="0.48.0 r9654"
   sodipodi:docname="TextInput.svg"
   inkscape:export-filename="/Users/Luke/Sites/MusicMe/app/modules/UI/Widget/TextInput.png"
   inkscape:export-xdpi="90"
   inkscape:export-ydpi="90">
  <defs
     id="defs4" />
  <sodipodi:namedview
     id="base"
     pagecolor="#ffffff"
     bordercolor="#666666"
     borderopacity="1.0"
     inkscape:pageopacity="0.0"
     inkscape:pageshadow="2"
     inkscape:zoom="22.4"
     inkscape:cx="6.0307926"
     inkscape:cy="9.5992643"
     inkscape:document-units="px"
     inkscape:current-layer="layer1"
     showgrid="false"
     inkscape:window-width="1176"
     inkscape:window-height="859"
     inkscape:window-x="0"
     inkscape:window-y="22"
     inkscape:window-maximized="0" />
  <metadata
     id="metadata7">
    <rdf:RDF>
      <cc:Work
         rdf:about="">
        <dc:format>image/svg+xml</dc:format>
        <dc:type
           rdf:resource="http://purl.org/dc/dcmitype/StillImage" />
        <dc:title></dc:title>
      </cc:Work>
    </rdf:RDF>
  </metadata>
  <g
     inkscape:label="Layer 1"
     inkscape:groupmode="layer"
     id="layer1"
     transform="translate(0,-1036.3622)">
    <path
       style="opacity:1;fill:#aeaeae;fill-opacity:1;stroke:none"
       d="M 8 0 C 3.5817219 1.7763568e-15 0 3.581722 0 8 C 0 12.418278 3.5817219 16 8 16 C 12.418278 16 16 12.418278 16 8 C 16 3.581722 12.418278 -1.1842379e-15 8 0 z M 4.4375 3.34375 C 4.5908504 3.346292 4.7281928 3.4117972 4.84375 3.53125 L 8.03125 6.8125 L 11.28125 3.625 C 11.520156 3.3938856 11.893886 3.4173444 12.125 3.65625 L 12.5 4 C 12.731114 4.2389056 12.707656 4.6126356 12.46875 4.84375 L 9.1875 8.03125 L 12.375 11.28125 C 12.606114 11.520156 12.582656 11.893886 12.34375 12.125 L 12 12.5 C 11.761094 12.731114 11.387364 12.707656 11.15625 12.46875 L 7.96875 9.1875 L 4.71875 12.375 C 4.4798444 12.606114 4.1061144 12.582656 3.875 12.34375 L 3.5 12 C 3.2688856 11.761094 3.2923444 11.387364 3.53125 11.15625 L 6.8125 7.96875 L 3.625 4.71875 C 3.3938856 4.4798444 3.4173444 4.1061144 3.65625 3.875 L 4 3.5 C 4.1194528 3.3844428 4.2841496 3.341208 4.4375 3.34375 z "
       transform="translate(0,1036.3622)"
       id="path2985" />
    <path
       id="path3821"
       d="m 24,1036.3622 c -4.418278,0 -8,3.5817 -8,8 0,4.4183 3.581722,8 8,8 4.418278,0 8,-3.5817 8,-8 0,-4.4183 -3.581722,-8 -8,-8 z m -3.5625,3.3438 c 0.15335,0 0.290693,0.068 0.40625,0.1875 l 3.1875,3.2812 3.25,-3.1875 c 0.238906,-0.2311 0.612636,-0.2077 0.84375,0.031 l 0.375,0.3437 c 0.231114,0.2389 0.207656,0.6126 -0.03125,0.8438 l -3.28125,3.1875 3.1875,3.25 c 0.231114,0.2389 0.207656,0.6126 -0.03125,0.8437 L 28,1048.8622 c -0.238906,0.2311 -0.612636,0.2077 -0.84375,-0.031 l -3.1875,-3.2813 -3.25,3.1875 c -0.238906,0.2311 -0.612636,0.2077 -0.84375,-0.031 l -0.375,-0.3438 c -0.231114,-0.2389 -0.207656,-0.6126 0.03125,-0.8437 l 3.28125,-3.1875 -3.1875,-3.25 c -0.231114,-0.239 -0.207656,-0.6127 0.03125,-0.8438 L 20,1039.8622 c 0.119453,-0.1156 0.28415,-0.1588 0.4375,-0.1562 z"
       style="fill:#797979;fill-opacity:1;stroke:none"
       inkscape:connector-curvature="0" />
  </g>
</svg>
